X:1
T:Pirates of the Caribbean
T:Pirates of the Caribbean
T:Trombone and Clarinet duet
T:Tristan Pofandt
T:Twidden co.
T:Twidden co.
T:Twidden co.
T:Twidden co.
C:Tristan Pofandt
Z:Twidden co.
%%score 1 2
L:1/8
Q:1/4=85
M:4/4
K:Eb
V:1 treble transpose=-2 nm="B♭ Clarinet" snm="B♭ Cl."
V:2 bass nm="Tenor Trombone" snm="T. Tbn."
V:1
[K:F]"^\n" EG | A6 Ac | d6 e2 | f2 z2 g2 z2 |[M:3/4][Q:1/4=110] d6 | z6 | z6 | z2 D2 E2 | F3 G A2 | %9
 G2 F2 E2 | F2 G2 A2 | G4 FG | A3 G F2 | E2 F2 E2 | D3 E C2 | D/D/D z c A z | z2 AA/A/ de | %17
 f3 e f2 | g2 f2 g2 | a3 g f2 | d4 de | f2 g2 a2 | b2 d3 g | f3 g e2 | A3 A fe | d6 | D6 | A6 | %28
 D6 | A,4 de | f3 e d2 | c2 f2 A2 | G3 F G2 | A6 |[Q:1/4=100]"^\n" d>A de fA | d>f ec dA | %36
 d>c de fg | a2 f2 c2 | d>A de fA | d>f ec dA | d>c de fg | a2 f2 c2 |"_accel." d2 d2 d2 | %43
 d2 (3ddd (3ddd | e2 (3eee (3eee | f2 (3fff (3fff | g2 a2 b2 | a2 b2 ^c'2 |[Q:1/4=160] d'2 DE FD | %49
 E2 D2 C2 | D2 DE FD | E2 F2 G2 | G2 GA BD | F2 E2 D2 | E2 D2 C2 | D2 F2 A2 | d2 de fd | e2 d2 c2 | %58
 d2 de fd | e2 f2 g2 | g2 ga b2 | a2 g2 f2 | e2 d2 c2 | D2 DE FG | A2 z4 | B2 z4 | A2 A2 A2 | %67
 AG z4 | G2 z4 | F2 z4 | E2 F2 E2 | AD FA (3def | a2 z4 | b2 z4 | a2 a2 c'2 | ag z4 | A2 =B2 ^c2 | %77
 d2 e2 f2 | d2 e2 f2 | AA =B^c de |[M:6/8][Q:3/8=140] D6- | D6- | D6 | z3 z A,C | D2 D- DDE | %85
 F2 F- FFG | E2 E- EDC | CD z z A,C | D2 D- DDE | F2 F- FFG | E2 E- EDC | D2 A, A,Ac | d2 d- ddf | %93
 g2 g- gga | b2 b- bag | ad z z DE | F2 F2 G2 | AD z2 DF | E2 E2 E2 | def dfg |[M:3/4] a2 z4 | %101
 b2 z4 | a2 a2 a2 | ag z4 | g2 z4 | f2 z4 | e2 f2 e2 | d2 z2 (3def | a2 z2 (3def | b2 z2 (3def | %110
 a2 a2 c'2 | ag z4 | g2 z4 | f2 z4 | e2 f2 e2 |[K:G] e2 g2 b2 | b2 z2 (3efg | c'2 z2 (3efg | %118
 b2 b2 b2 | ba z4 | a2 z4 | g2 z4 | f2 g2 f2 | e6- | e6 |] %125
V:2
 z2 | E,2 D,2 C,4 | E,2 D,2 C,2 B,,2 | C2 z2 A,2 z2 |[M:3/4] C,C,/C,/ C,C, C,C, | %5
 C,C,/C,/ C,C, C,C, | C,C,/C,/ C,C, C,C, | C,C,/C,/ C,C, C,C, | C,C,/C,/ C,C, C,C, | %9
 B,,B,,/B,,/ B,,B,, B,,B,, | E,E,/E,/ E,E, E,E, | B,,B,,/B,,/ B,,B,, G,,B,, | E,E,/E,/ E,F, F,F, | %13
 G,G,,/G,,/ G,,G,, G,,G,, | C,C,/C,/ C,D, B,,2 | G,,/G,,/G,, z F,, G,, z | %16
 G,,/G,,/G,, G,,G,, G,,G,, | C,C,/C,/ C,C, C,C, | B,,B,,/B,,/ B,,B,, B,,B,, | %19
 E,E,/E,/ F,F,/F,/ G,2 | A,A,/A,/ A,A, A,G, | C,C,/C,/ D,D,/D,/ E,E,/E,/ | F,2 F,2 F,2 | %23
 G,G,,/G,,/ G,,G,, G,,G,, | G,G,,/G,,/ G,,G,, G,,G,, | C,6 | C,3 G,, C,2 | D,2 G,,2 D,2 | %28
 E,3 D, C,2 | D,4 z2 | C2 B,2 A,2 | G,2 G,2 E,2 | C,6 | G,,2 A,,2 =B,,2 | C,2 z4 | C,2 z4 | %36
 C,2 z4 | z C, z E, z B,, | C,2 z4 | C,2 z4 | C,2 z4 | z C, z E, z B,, |"_accel." C,2 C,2 C,2 | %43
 G,6 | F,6 | E,6 | F,2 G,2 A,2 | G,2 A,2 =B,2 | C2 z2 z2 | B,,2 z2 B,,2 | C,2 z2 C,2 | %51
 B,,2 B,,2 B,,2 | F,2 z2 F,2 | C,2 z2 C,2 | G,2 G,2 G,2 | C,2 C,2 G,2 | C,2 z4 | B,,2 z2 B,,2 | %58
 C,2 z4 | B,,2 B,,2 B,,2 | F,,2 z4 | C,2 z4 | G,,2 G,,2 G,,2 | C2 G,2 E,2 | C,6- | C,6 | E,6 | %67
 B,,6 | F,6 | C,6 | G,6 | C,2 C,2 C,2 | C2 z4 | C2 z4 | B,2 B,2 G,2 | B,B, z4 | D,6 | G,6 | G,6 | %79
 G,,6 |[M:6/8] z6 | z6 | C,2 C, C,2 C, | C,2 C, C,2 C, | C,6 | A,,6 | G,,6 | C,6 | A,,6 | E,6 | %90
 G,,6 | C,6 | C,6 | F,,6 | G,,6 | C,6 | A,,6 | C,6 | G,,6 | G,6 |[M:3/4] C,2 (3CCC (3CCC | %101
 C,2 (3CCC (3CCC | B,2 B,2 B,2 | ED (3B,B,B, (3B,B,B, | F,2 z4 | G,2 z4 | G,2 G,2 G,2 | %107
 G,2 G,2 G,2 | C,6 | E,6 | B,,6- | B,,6 | F,6 | G,6 | G,6 |[K:F] A,,6 | F,6- | F,6 | F,2 F,2 F,2 | %119
 C,6 | B,,6 | A,,6 | E,,6 | A,6- | A,6 |] %125

